assets/img/icons/icon-black-service-7.svg

<svg width="98" height="97" viewBox="0 0 98 97" fill="none" xmlns="http://www.w3.org/2000/svg">
<path d="M27.0905 29.8528H55.2172C55.8478 29.8528 56.3594 29.3412 56.3594 28.7106C56.3594 28.08 55.8478 27.5684 55.2172 27.5684H27.0905C26.4599 27.5684 25.9482 28.08 25.9482 28.7106C25.9482 29.3412 26.4599 29.8528 27.0905 29.8528Z" fill="#0A102F"/>
<path d="M27.0905 36.2176H39.7279C40.3585 36.2176 40.8701 35.7059 40.8701 35.0753C40.8701 34.4447 40.3585 33.9331 39.7279 33.9331H27.0905C26.4599 33.9331 25.9482 34.4447 25.9482 35.0753C25.9482 35.7059 26.4599 36.2176 27.0905 36.2176Z" fill="#0A102F"/>
<path d="M12.0038 27.3953C9.84205 28.9711 8.49755 32.0773 10.6526 35.1731C13.3089 38.9923 20.2487 38.4334 21.1097 32.7451C21.3484 31.1671 20.9706 29.5868 20.0723 28.4104C17.8518 25.4991 14.3329 25.6961 12.0038 27.3953ZM18.8505 32.403C18.308 35.9904 14.0321 36.0312 12.5281 33.8687C11.1546 31.8966 12.1124 30.1431 13.3491 29.2418C14.8918 28.1174 16.9611 28.0981 18.2563 29.7958C18.7806 30.4829 18.9978 31.434 18.8505 32.403Z" fill="#0A102F"/>
<path d="M27.0905 46.949H55.2172C55.8478 46.949 56.3594 46.4374 56.3594 45.8068C56.3594 45.1762 55.8478 44.6646 55.2172 44.6646H27.0905C26.4599 44.6646 25.9482 45.1762 25.9482 45.8068C25.9482 46.4374 26.4599 46.949 27.0905 46.949Z" fill="#0A102F"/>
<path d="M27.0905 53.3147H39.7279C40.3585 53.3147 40.8701 52.8031 40.8701 52.1725C40.8701 51.5419 40.3585 51.0303 39.7279 51.0303H27.0905C26.4599 51.0303 25.9482 51.5419 25.9482 52.1725C25.9482 52.8031 26.4599 53.3147 27.0905 53.3147Z" fill="#0A102F"/>
<path d="M10.6528 52.2699C13.3149 56.0976 20.2502 55.5194 21.1098 49.8427C21.3485 48.2639 20.9708 46.6837 20.0724 45.5065C15.675 39.7361 6.38026 46.1309 10.6528 52.2699ZM17.495 51.8401C15.9914 52.9093 13.5728 52.4676 12.5282 50.9655C9.96899 47.2895 15.6314 43.4497 18.2565 46.8911C19.3615 48.3426 18.9865 50.7774 17.495 51.8401Z" fill="#0A102F"/>
<path d="M27.0905 64.0462H55.2172C55.8478 64.0462 56.3594 63.5346 56.3594 62.904C56.3594 62.2733 55.8478 61.7617 55.2172 61.7617H27.0905C26.4599 61.7617 25.9482 62.2733 25.9482 62.904C25.9482 63.5346 26.4599 64.0462 27.0905 64.0462Z" fill="#0A102F"/>
<path d="M39.7279 68.1265H27.0905C26.4599 68.1265 25.9482 68.6381 25.9482 69.2687C25.9482 69.8993 26.4599 70.4109 27.0905 70.4109H39.7279C40.3585 70.4109 40.8701 69.8993 40.8701 69.2687C40.8701 68.6381 40.3585 68.1265 39.7279 68.1265Z" fill="#0A102F"/>
<path d="M10.6527 69.3671C11.7309 70.9174 13.6182 71.81 15.5332 71.81C20.6014 71.81 22.6415 65.9703 20.0724 62.6037C15.682 56.8411 6.37607 63.2222 10.6527 69.3671ZM17.495 68.9373C15.9988 70.0013 13.577 69.5709 12.5282 68.0628C9.96896 64.3868 15.6314 60.547 18.2564 63.9884C19.3615 65.4399 18.9865 67.8746 17.495 68.9373Z" fill="#0A102F"/>
<path d="M95.7013 56.1823C95.0507 55.4424 94.3992 54.701 93.9054 54.1514C93.3038 53.4814 92.2613 53.4271 91.5823 54.028C91.4137 54.177 71.4344 70.7763 71.2731 70.9088C71.3493 20.5412 71.6974 23.55 71.198 22.7178C71.1974 22.7122 71.1999 22.7071 71.1991 22.7014C70.1863 15.1534 64.1658 8.07249 57.1949 6.22975C56.9176 6.1578 56.6425 6.20447 56.4041 6.32141C54.3283 5.63617 53.1526 6.17193 5.18396 5.53296C4.99507 5.52078 4.80572 5.59031 4.62948 5.68903C4.63431 5.61718 4.6371 5.55713 4.6371 5.51465C3.11255 6.72083 1.75299 7.70922 0.49094 9.30061C0.261527 9.58989 0.140778 9.95939 0.138826 10.3286C-0.0133416 38.9378 -0.191815 68.1208 0.511018 95.9691C0.523846 96.4781 0.942236 96.88 1.45135 96.8778L67.6166 96.6021C68.5206 96.5983 69.3383 96.0836 69.766 95.2871C70.4508 94.0114 71.0079 92.6144 71.2091 91.994C71.1955 91.9949 71.1819 91.9952 71.1684 91.9961C71.2231 91.577 71.193 89.3232 71.2263 84.5873C79.5471 77.1167 88.0254 69.6149 96.5774 62.4856C97.4707 61.741 97.4587 60.8629 97.4666 60.1199C97.5925 59.8814 97.6712 59.6183 97.6928 59.3465C97.795 58.065 96.7919 57.5886 95.7013 56.1823ZM92.6279 56.1511C92.7472 56.2855 95.2543 59.1293 95.2819 59.1606C83.3272 68.9134 75.1553 76.1052 65.5631 85.3263C60.2125 80.3231 58.3254 79.2508 53.1614 73.5597C54.5909 72.2305 55.7061 71.1465 57.0767 69.8727C64.1097 77.1784 64.5552 78.7114 65.6568 78.7354C66.2286 78.7533 66.2294 78.751 69.4062 75.6538C72.355 72.7811 90.1214 58.3529 92.6279 56.1511ZM68.7406 21.9035H60.4989C59.6546 21.9035 59.0137 22.1262 58.816 21.8358C58.7617 21.7532 58.7543 21.6662 58.7714 21.2914C58.7789 21.1182 58.7863 20.939 58.7811 20.759C58.5831 12.3382 59.0648 11.1693 58.6677 9.18247C63.5014 11.3714 67.5991 16.4849 68.7406 21.9035ZM68.9169 90.7103H6.31132V7.83304C52.8265 8.44076 50.0766 7.93597 55.2436 8.39523C57.241 8.57217 56.2643 11.0122 56.4974 20.8185C56.5126 21.3455 56.3146 22.1899 56.919 23.1082C57.9988 24.6877 59.7067 24.1879 60.4989 24.1879H69.1668L68.9811 72.8851C68.4399 73.4031 67.7517 74.079 66.9032 74.9024C61.7736 69.5235 61.115 67.5964 58.6396 67.5842C58.0555 67.5812 57.4843 67.5316 56.8374 67.3844C56.867 67.4167 56.8932 67.4445 56.9226 67.4768C55.8582 67.5708 55.9882 67.8399 51.3335 72.1386C50.572 72.8428 50.517 74.0408 51.2101 74.8075C56.9507 81.1716 58.785 82.0425 64.786 87.7327C65.0068 87.9417 65.2894 88.0458 65.572 88.0458C65.6221 88.0458 65.6696 88.0242 65.7192 88.0177C66.5214 88.229 67.3781 88.0423 68.0018 87.4804C68.3106 87.2023 68.6242 86.9228 68.9334 86.6445L68.9169 90.7103Z" fill="#0A102F"/>
<path d="M72.7704 0.108716C72.2008 -0.160481 71.5189 0.0878945 71.2519 0.65901L68.8641 5.75741C68.5964 6.32927 68.8425 7.00896 69.4136 7.27667C69.9805 7.54265 70.6641 7.30078 70.9329 6.72712L73.3207 1.62723C73.5884 1.05611 73.3415 0.375683 72.7704 0.108716Z" fill="#0A102F"/>
<path d="M74.8344 10.9846L80.6325 6.53173C81.1323 6.14801 81.2267 5.4304 80.8422 4.92993C80.4593 4.4302 79.7417 4.33725 79.2404 4.72022L73.4423 9.17314C72.9426 9.55686 72.8481 10.2745 73.2326 10.7749C73.6156 11.2733 74.3319 11.37 74.8344 10.9846Z" fill="#0A102F"/>
<path d="M76.6514 14.2277C76.029 14.1333 75.4467 14.569 75.3567 15.1937C75.266 15.8184 75.6988 16.3977 76.3227 16.4884L84.0387 17.6098C84.6593 17.7008 85.2425 17.2706 85.3334 16.6438C85.4241 16.0199 84.9921 15.4398 84.3674 15.3491L76.6514 14.2277Z" fill="#0A102F"/>
</svg>

<?xml version="1.0" encoding="utf-8"?>
<!-- Generator: Adobe Illustrator 28.3.0, SVG Export Plug-In . SVG Version: 6.00 Build 0)  -->
<svg version="1.1" id="Layer_1" xmlns="http://www.w3.org/2000/svg" xmlns:xlink="http://www.w3.org/1999/xlink" x="0px" y="0px"
	 viewBox="0 0 98 97" style="enable-background:new 0 0 98 97;" xml:space="preserve">
<style type="text/css">
	.st0{fill:#27466F;}
</style>
<path class="st0" d="M27.1,29.9h28.1c0.6,0,1.1-0.5,1.1-1.1s-0.5-1.1-1.1-1.1H27.1c-0.6,0-1.1,0.5-1.1,1.1S26.5,29.9,27.1,29.9z"/>
<path class="st0" d="M27.1,36.2h12.6c0.6,0,1.1-0.5,1.1-1.1s-0.5-1.1-1.1-1.1H27.1c-0.6,0-1.1,0.5-1.1,1.1S26.5,36.2,27.1,36.2z"/>
<path class="st0" d="M12,27.4c-2.2,1.6-3.5,4.7-1.4,7.8c2.7,3.8,9.6,3.3,10.5-2.4c0.2-1.6-0.1-3.2-1-4.3
	C17.9,25.5,14.3,25.7,12,27.4z M18.9,32.4C18.3,36,14,36,12.5,33.9c-1.4-2-0.4-3.7,0.8-4.6c1.5-1.1,3.6-1.1,4.9,0.6
	C18.8,30.5,19,31.4,18.9,32.4z"/>
<path class="st0" d="M27.1,46.9h28.1c0.6,0,1.1-0.5,1.1-1.1s-0.5-1.1-1.1-1.1H27.1c-0.6,0-1.1,0.5-1.1,1.1S26.5,46.9,27.1,46.9z"/>
<path class="st0" d="M27.1,53.3h12.6c0.6,0,1.1-0.5,1.1-1.1S40.4,51,39.7,51H27.1c-0.6,0-1.1,0.5-1.1,1.1S26.5,53.3,27.1,53.3z"/>
<path class="st0" d="M10.7,52.3c2.7,3.8,9.6,3.2,10.5-2.4c0.2-1.6-0.1-3.2-1-4.3C15.7,39.7,6.4,46.1,10.7,52.3z M17.5,51.8
	c-1.5,1.1-3.9,0.6-5-0.9c-2.6-3.7,3.1-7.5,5.7-4.1C19.4,48.3,19,50.8,17.5,51.8z"/>
<path class="st0" d="M27.1,64h28.1c0.6,0,1.1-0.5,1.1-1.1c0-0.6-0.5-1.1-1.1-1.1H27.1c-0.6,0-1.1,0.5-1.1,1.1
	C25.9,63.5,26.5,64,27.1,64z"/>
<path class="st0" d="M39.7,68.1H27.1c-0.6,0-1.1,0.5-1.1,1.1s0.5,1.1,1.1,1.1h12.6c0.6,0,1.1-0.5,1.1-1.1S40.4,68.1,39.7,68.1z"/>
<path class="st0" d="M10.7,69.4c1.1,1.6,3,2.4,4.9,2.4c5.1,0,7.1-5.8,4.5-9.2C15.7,56.8,6.4,63.2,10.7,69.4z M17.5,68.9
	c-1.5,1.1-3.9,0.6-5-0.9c-2.6-3.7,3.1-7.5,5.7-4.1C19.4,65.4,19,67.9,17.5,68.9z"/>
<path class="st0" d="M95.7,56.2c-0.7-0.7-1.3-1.5-1.8-2c-0.6-0.7-1.6-0.7-2.3-0.1c-0.2,0.1-20.1,16.7-20.3,16.9
	c0.1-50.4,0.4-47.4-0.1-48.2c0,0,0,0,0,0c-1-7.5-7-14.6-14-16.5c-0.3-0.1-0.6,0-0.8,0.1c-2.1-0.7-3.3-0.1-51.2-0.8
	C5,5.5,4.8,5.6,4.6,5.7c0-0.1,0-0.1,0-0.2C3.1,6.7,1.8,7.7,0.5,9.3c-0.2,0.3-0.4,0.7-0.4,1C0,38.9-0.2,68.1,0.5,96
	c0,0.5,0.4,0.9,0.9,0.9l66.2-0.3c0.9,0,1.7-0.5,2.1-1.3c0.7-1.3,1.2-2.7,1.4-3.3c0,0,0,0,0,0c0.1-0.4,0-2.7,0.1-7.4
	c8.3-7.5,16.8-15,25.4-22.1c0.9-0.7,0.9-1.6,0.9-2.4c0.1-0.2,0.2-0.5,0.2-0.8C97.8,58.1,96.8,57.6,95.7,56.2z M92.6,56.2
	c0.1,0.1,2.6,3,2.7,3c-12,9.8-20.1,16.9-29.7,26.2c-5.4-5-7.2-6.1-12.4-11.8c1.4-1.3,2.5-2.4,3.9-3.7c7,7.3,7.5,8.8,8.6,8.9
	c0.6,0,0.6,0,3.7-3.1C72.4,72.8,90.1,58.4,92.6,56.2z M68.7,21.9h-8.2c-0.8,0-1.5,0.2-1.7-0.1c-0.1-0.1-0.1-0.2,0-0.5
	c0-0.2,0-0.4,0-0.5c-0.2-8.4,0.3-9.6-0.1-11.6C63.5,11.4,67.6,16.5,68.7,21.9z M68.9,90.7H6.3V7.8c46.5,0.6,43.8,0.1,48.9,0.6
	c2,0.2,1,2.6,1.3,12.4c0,0.5-0.2,1.4,0.4,2.3c1.1,1.6,2.8,1.1,3.6,1.1h8.7L69,72.9c-0.5,0.5-1.2,1.2-2.1,2c-5.1-5.4-5.8-7.3-8.3-7.3
	c-0.6,0-1.2-0.1-1.8-0.2c0,0,0.1,0.1,0.1,0.1c-1.1,0.1-0.9,0.4-5.6,4.7c-0.8,0.7-0.8,1.9-0.1,2.7c5.7,6.4,7.6,7.2,13.6,12.9
	c0.2,0.2,0.5,0.3,0.8,0.3c0.1,0,0.1,0,0.1,0c0.8,0.2,1.7,0,2.3-0.5c0.3-0.3,0.6-0.6,0.9-0.8L68.9,90.7z"/>
<path class="st0" d="M72.8,0.1c-0.6-0.3-1.3,0-1.5,0.6l-2.4,5.1c-0.3,0.6,0,1.3,0.5,1.5c0.6,0.3,1.3,0,1.5-0.5l2.4-5.1
	C73.6,1.1,73.3,0.4,72.8,0.1z"/>
<path class="st0" d="M74.8,11l5.8-4.5c0.5-0.4,0.6-1.1,0.2-1.6c-0.4-0.5-1.1-0.6-1.6-0.2l-5.8,4.5c-0.5,0.4-0.6,1.1-0.2,1.6
	C73.6,11.3,74.3,11.4,74.8,11z"/>
<path class="st0" d="M76.7,14.2c-0.6-0.1-1.2,0.3-1.3,1c-0.1,0.6,0.3,1.2,1,1.3l7.7,1.1c0.6,0.1,1.2-0.3,1.3-1
	c0.1-0.6-0.3-1.2-1-1.3L76.7,14.2z"/>
</svg>
